resources/haticons/SVG/drafts.svg

<!-- Generated by IcoMoon.io -->
<svg version="1.1" xmlns="http://www.w3.org/2000/svg" width="24" height="24" viewBox="0 0 24 24">
<title>drafts</title>
<path d="M12 12.984l8.25-5.156-8.25-4.828-8.25 4.828zM21.984 8.016v9.984q0 0.797-0.586 1.406t-1.383 0.609h-16.031q-0.797 0-1.383-0.609t-0.586-1.406v-9.984q0-1.172 0.938-1.734l9.047-5.297 9.047 5.297q0.938 0.563 0.938 1.734z"></path>
</svg>

<svg xmlns="http://www.w3.org/2000/svg" width="24" height="24"><path d="M12 12.984l8.25-5.156L12 3 3.75 7.828zm9.984-4.968V18q0 .797-.586 1.406t-1.383.609H3.984q-.797 0-1.383-.609T2.015 18V8.016q0-1.172.938-1.734L12 .985l9.047 5.297q.938.563.938 1.734z"/></svg>
